!!!OTL: 194c. Der Reiter und ſeine Geliebte.
!!!ARE: Europa, Mitteleuropa, Deutschland, Dillkreis
!!!SCT: E0194B
!!!TXL: @@DE
!!!YEM: Copyright 1995, estate of Helmut Schaffrath.
**kern	**text
*ICvox	*
*M3/4	*
*k[f#]	*
*G:	*
!LO:TX:a:t=Langſam.	!
!LO:TX:a:t=Mehrſach mündlich aus dem Dillkreis 1880.	!
{4d	Es
=1	=1
4.g	gien-
8a	-gen
4b/	ʒwei
=2	=2
4a	Lieb-
4g}	-chen
{4a	durch
=3	=3
(4.b	ei-
8cc)	-nen
8dd	grü-
8b	-nen
=4	=4
4a	Wald,
4r}	.
{8gL	ſie
8bJ	.
=5	=5
8ddL	fan-
8ccJ	.
4b	-den
8a/L	ein
8ccJ	.
=6	=6
8bL	Börn-
8aJ	.
4g}	-lein
{8a/L	war
8ccJ	.
=7	=7
4b	kühl
4dd	und
4a	war
=8	=8
2b}	kalt.
==	==
!!!AGN: erzaehlendes Volks - Lied, Sage, Familien - Geschichte
!!!ONB: ESAC (Essen Associative Code) Database: ERK1
!!!AMT: simple triple
!!!AIN: vox
!!!EED: Helmut Schaffrath
!!!EEV: 1.0
!!!GTL: Denkwuerdige Familiengeschichten
!!!URL-scan: https://rosdok.uni-rostock.de/mcrviewer/recordIdentifier/rosdok_ppn745146120/iview2/phys_0656.iview2?x=-128.7727644188933&y=1980.5795299555175&scale=0.5870222003877484&rotation=0&layout=singlePageLayout
!!!ENC: Anna Maria Matuszewska
!!!EEV: 2024/05/12
*-	*-
